docs/static/images/users/shutterstock.svg

<svg width="565" height="80" xmlns="http://www.w3.org/2000/svg">
  <path d="M336.884 44.817c-.854-.15-3.72-.626-4.559-.78-4.527-.813-8.403-1.871-8.403-6.423 0-3.908 4.1-5.731 9.201-5.731 7.592 0 14.249 3.438 15.009 3.818l4.162-10.972c-1.601-.831-8.375-4.447-19.042-4.447-9.769 0-21.703 5.127-21.703 17.884 0 11.416 8.163 15.08 16.028 16.464 1.086.199 4.501.782 5.478.952 5.29.895 8.196 2.864 8.196 6.323 0 4.392-4.127 6.451-10.375 6.451-10.003 0-15.873-2.98-17.569-3.677l-4.61 10.735c1.432.737 8.261 4.586 21.587 4.586 12.931 0 23.308-6.401 23.308-18.315-.101-11.09-7.559-15.297-16.708-16.868M376.368.302L364.13 7.068v14.329h-6.443v11.698h6.443v25.289c0 10.803 4.443 20.502 20.113 20.502h4.9V67.179h-1.838c-7.702 0-10.937-4.443-10.937-10.477V33.095h14.056V21.397h-14.056V.302M471.979 32.175c4.778 0 9.669 2.171 11.137 7.424l11.105-4.222c-3.11-10.987-13.322-15.095-22.33-15.095-16.14 0-22.647 10.017-22.647 19.754v20.205c0 9.733 6.507 19.759 22.647 19.759 9.008 0 19.22-4.114 22.33-15.101l-11.105-4.22c-1.468 5.247-6.359 7.431-11.137 7.431-8.314 0-10.519-4.55-10.519-9.737V41.901c0-5.182 2.205-9.726 10.519-9.726M524.309 47.218l22.879-25.821h-15.049L512.46 43.904V.304h-12.249v78.582h12.249V60.589l4.017-4.535 17.524 22.832h14.687l-24.379-31.668" fill="#4e4e55"/>
  <path d="M424.659 33.942h-12.725a3.666 3.666 0 00-3.666 3.657v13.802h-12.554V37.599c0-8.952 7.257-16.202 16.22-16.202h12.725v12.545M414.301 66.34h12.734a3.667 3.667 0 003.661-3.662V48.881h12.551v13.797c0 8.952-7.258 16.208-16.212 16.208h-12.734V66.34M206.765 21.397h14.052v11.698h-14.052v23.607c0 6.034 3.233 10.477 10.929 10.477h1.837v11.707h-4.902c-15.675 0-20.104-9.699-20.104-20.502V33.095h-20.598v23.607c0 6.034 3.239 10.477 10.935 10.477h1.831v11.707h-4.903c-15.668 0-20.107-9.699-20.107-20.502V33.095h-6.204V21.397h6.204V7.068L173.927.302v21.095h20.598V7.068l12.24-6.766v21.095M74.644 20.282c-3.872 0-7.799.749-11.334 2.245V.302H51.07v78.584h12.24V33.964c2.46-1.545 5.999-2.467 9.459-2.467 7.693 0 11.314 4.275 11.314 10.579v36.81h12.23v-38.48c0-11.604-8.409-20.124-21.669-20.124M136.679 67.453c-2.327 1.255-5.271 1.974-8.2 1.974-9.135 0-12.569-4.651-12.569-11.065V21.397h-12.238v37.19c0 14.456 8.359 21.413 23.3 21.413 7.156 0 15.079-1.808 21.941-4.777V21.397h-12.234v46.056M28.184 44.817c-.847-.15-3.717-.626-4.559-.78-4.517-.813-8.402-1.871-8.402-6.423 0-3.908 4.095-5.731 9.203-5.731 7.59 0 14.247 3.438 15.007 3.818l4.159-10.972c-1.59-.831-8.37-4.447-19.044-4.447-9.763 0-21.698 5.127-21.698 17.884 0 11.416 8.153 15.08 16.03 16.464 1.084.199 4.501.782 5.484.952 5.288.895 8.182 2.864 8.182 6.323 0 4.392-4.115 6.451-10.36 6.451-10.013 0-15.882-2.98-17.58-3.677L0 75.414C1.436 76.151 8.263 80 21.589 80c12.931 0 23.308-6.401 23.308-18.315-.111-11.09-7.568-15.297-16.713-16.868M259.181 45.783h-20.636V41.6c0-4.666 2.343-9.67 10.381-9.67 7.748 0 10.255 4.873 10.255 9.443zm12.24-5.747c0-10.515-8.019-19.759-22.437-19.759-16.367 0-22.652 10.216-22.652 19.759V59.13c0 13.21 8.446 20.87 22.652 20.87 12.532 0 19.037-7.242 20.969-11.592l-10.332-6.204c-.882 2.555-4.973 6.139-10.555 6.139-7.568 0-10.478-4.219-10.478-9.507l-.043-3.149h32.876V40.036M279.252 40.058v38.828h12.23V41.103c0-3.3 1.873-8.939 10.856-8.939 1.41 0 4.597.401 5.616.592V20.897c-1.103-.266-3.631-.62-6.243-.62-15.556 0-22.459 9.752-22.459 19.781" fill="#e32124"/>
  <path d="M559.521 24.66c0-.455-.288-.882-1.057-.882h-.768v1.938h.768c.829 0 1.057-.372 1.057-.97zm-.114 4.106a.16.16 0 01-.144-.084l-.914-1.997h-.653v1.967c0 .058-.032.114-.086.114h-1.144c-.055 0-.113-.056-.113-.114v-5.901h2.283c1.539 0 2.224.971 2.224 1.881v.114c0 .8-.427 1.54-1.198 1.883l1.142 2.023c.028.058 0 .114-.058.114zm-.943-7.528c-2.594 0-4.479 2.028-4.479 4.621 0 2.424 1.912 4.477 4.479 4.477 2.595 0 4.452-2.053 4.452-4.477 0-2.567-2.026-4.621-4.452-4.621zm0 10.439c-3.309 0-5.99-2.51-5.99-5.818 0-3.307 2.681-5.961 5.99-5.961 3.28 0 5.963 2.681 5.963 5.961 0 3.308-2.653 5.818-5.963 5.818" fill="#4e4e55"/>
</svg>

<?xml version="1.0" encoding="UTF-8"?>
<svg width="565px" height="80px" viewBox="0 0 565 80" xmlns="http://www.w3.org/2000/svg" xmlns:xlink="http://www.w3.org/1999/xlink" version="1.1">
 <!-- Generated by Pixelmator Pro 1.4.1 -->
 <path id="path" d="M336.884 44.817 C336.03 44.667 333.164 44.191 332.325 44.037 327.798 43.224 323.922 42.166 323.922 37.614 323.922 33.706 328.022 31.883 333.123 31.883 340.715 31.883 347.372 35.321 348.132 35.701 L352.294 24.729 C350.693 23.898 343.919 20.282 333.252 20.282 323.483 20.282 311.549 25.409 311.549 38.166 311.549 49.582 319.712 53.246 327.577 54.63 328.663 54.829 332.078 55.412 333.055 55.582 338.345 56.477 341.251 58.446 341.251 61.905 341.251 66.297 337.124 68.356 330.876 68.356 320.873 68.356 315.003 65.376 313.307 64.679 L308.697 75.414 C310.129 76.151 316.958 80 330.284 80 343.215 80 353.592 73.599 353.592 61.685 353.491 50.595 346.033 46.388 336.884 44.817" fill="#4e4e55" fill-opacity="1" stroke="none"/>
 <path id="path-1" d="M376.368 0.302 L364.13 7.068 364.13 21.397 357.687 21.397 357.687 33.095 364.13 33.095 364.13 58.384 C364.13 69.187 368.573 78.886 384.243 78.886 L389.143 78.886 389.143 67.179 387.305 67.179 C379.603 67.179 376.368 62.736 376.368 56.702 L376.368 33.095 390.424 33.095 390.424 21.397 376.368 21.397 376.368 0.302" fill="#4e4e55" fill-opacity="1" stroke="none"/>
 <path id="path-2" d="M471.979 32.175 C476.757 32.175 481.648 34.346 483.116 39.599 L494.221 35.377 C491.111 24.39 480.899 20.282 471.891 20.282 455.751 20.282 449.244 30.299 449.244 40.036 L449.244 60.241 C449.244 69.974 455.751 80 471.891 80 480.899 80 491.111 75.886 494.221 64.899 L483.116 60.679 C481.648 65.926 476.757 68.11 471.979 68.11 463.665 68.11 461.46 63.56 461.46 58.373 L461.46 41.901 C461.46 36.719 463.665 32.175 471.979 32.175" fill="#4e4e55" fill-opacity="1" stroke="none"/>
 <path id="path-3" d="M524.309 47.218 L547.188 21.397 532.139 21.397 512.46 43.904 512.46 0.304 500.211 0.304 500.211 78.886 512.46 78.886 512.46 60.589 516.477 56.054 534.001 78.886 548.688 78.886 524.309 47.218" fill="#4e4e55" fill-opacity="1" stroke="none"/>
 <path id="path-4" d="M424.659 33.942 L411.934 33.942 C409.91 33.942 408.268 35.585 408.268 37.599 L408.268 51.401 395.714 51.401 395.714 37.599 C395.714 28.647 402.971 21.397 411.934 21.397 L424.659 21.397 424.659 33.942" fill="#e32124" fill-opacity="1" stroke="none"/>
 <path id="path-5" d="M414.301 66.34 L427.035 66.34 C429.05 66.34 430.696 64.699 430.696 62.678 L430.696 48.881 443.247 48.881 443.247 62.678 C443.247 71.63 435.989 78.886 427.035 78.886 L414.301 78.886 414.301 66.34" fill="#e32124" fill-opacity="1" stroke="none"/>
 <path id="path-6" d="M206.765 21.397 L220.817 21.397 220.817 33.095 206.765 33.095 206.765 56.702 C206.765 62.736 209.998 67.179 217.694 67.179 L219.531 67.179 219.531 78.886 214.629 78.886 C198.954 78.886 194.525 69.187 194.525 58.384 L194.525 33.095 173.927 33.095 173.927 56.702 C173.927 62.736 177.166 67.179 184.862 67.179 L186.693 67.179 186.693 78.886 181.79 78.886 C166.122 78.886 161.683 69.187 161.683 58.384 L161.683 33.095 155.479 33.095 155.479 21.397 161.683 21.397 161.683 7.068 173.927 0.302 173.927 21.397 194.525 21.397 194.525 7.068 206.765 0.302 206.765 21.397" fill="#e32124" fill-opacity="1" stroke="none"/>
 <path id="path-7" d="M74.644 20.282 C70.772 20.282 66.845 21.031 63.31 22.527 L63.31 0.302 51.07 0.302 51.07 78.886 63.31 78.886 63.31 33.964 C65.77 32.419 69.309 31.497 72.769 31.497 80.462 31.497 84.083 35.772 84.083 42.076 L84.083 78.886 96.313 78.886 96.313 40.406 C96.313 28.802 87.904 20.282 74.644 20.282" fill="#e32124" fill-opacity="1" stroke="none"/>
 <path id="path-8" d="M136.679 67.453 C134.352 68.708 131.408 69.427 128.479 69.427 119.344 69.427 115.91 64.776 115.91 58.362 L115.91 21.397 103.672 21.397 103.672 58.587 C103.672 73.043 112.031 80 126.972 80 134.128 80 142.051 78.192 148.913 75.223 L148.913 21.397 136.679 21.397 136.679 67.453" fill="#e32124" fill-opacity="1" stroke="none"/>
 <path id="path-9" d="M28.184 44.817 C27.337 44.667 24.467 44.191 23.625 44.037 19.108 43.224 15.223 42.166 15.223 37.614 15.223 33.706 19.318 31.883 24.426 31.883 32.016 31.883 38.673 35.321 39.433 35.701 L43.592 24.729 C42.002 23.898 35.222 20.282 24.548 20.282 14.785 20.282 2.85 25.409 2.85 38.166 2.85 49.582 11.003 53.246 18.88 54.63 19.964 54.829 23.381 55.412 24.364 55.582 29.652 56.477 32.546 58.446 32.546 61.905 32.546 66.297 28.431 68.356 22.186 68.356 12.173 68.356 6.304 65.376 4.606 64.679 L0 75.414 C1.436 76.151 8.263 80 21.589 80 34.52 80 44.897 73.599 44.897 61.685 44.786 50.595 37.329 46.388 28.184 44.817" fill="#e32124" fill-opacity="1" stroke="none"/>
 <path id="path-10" d="M259.181 45.783 L238.545 45.783 238.545 41.6 C238.545 36.934 240.888 31.93 248.926 31.93 256.674 31.93 259.181 36.803 259.181 41.373 Z M271.421 40.036 C271.421 29.521 263.402 20.277 248.984 20.277 232.617 20.277 226.332 30.493 226.332 40.036 L226.332 59.13 C226.332 72.34 234.778 80 248.984 80 261.516 80 268.021 72.758 269.953 68.408 L259.621 62.204 C258.739 64.759 254.648 68.343 249.066 68.343 241.498 68.343 238.588 64.124 238.588 58.836 L238.545 55.687 271.421 55.687 271.421 40.036" fill="#e32124" fill-opacity="1" stroke="none"/>
 <path id="path-11" d="M279.252 40.058 L279.252 78.886 291.482 78.886 291.482 41.103 C291.482 37.803 293.355 32.164 302.338 32.164 303.748 32.164 306.935 32.565 307.954 32.756 L307.954 20.897 C306.851 20.631 304.323 20.277 301.711 20.277 286.155 20.277 279.252 30.029 279.252 40.058" fill="#e32124" fill-opacity="1" stroke="none"/>
 <path id="path-12" d="M559.521 24.66 C559.521 24.205 559.233 23.778 558.464 23.778 L557.696 23.778 557.696 25.716 558.464 25.716 C559.293 25.716 559.521 25.344 559.521 24.746 Z M559.407 28.766 C559.349 28.766 559.293 28.738 559.263 28.682 L558.349 26.685 557.696 26.685 557.696 28.652 C557.696 28.71 557.664 28.766 557.61 28.766 L556.466 28.766 C556.411 28.766 556.353 28.71 556.353 28.652 L556.353 22.751 558.636 22.751 C560.175 22.751 560.86 23.722 560.86 24.632 L560.86 24.746 C560.86 25.546 560.433 26.286 559.662 26.629 L560.804 28.652 C560.832 28.71 560.804 28.766 560.746 28.766 Z M558.464 21.238 C555.87 21.238 553.985 23.266 553.985 25.859 553.985 28.283 555.897 30.336 558.464 30.336 561.059 30.336 562.916 28.283 562.916 25.859 562.916 23.292 560.89 21.238 558.464 21.238 Z M558.464 31.677 C555.155 31.677 552.474 29.167 552.474 25.859 552.474 22.552 555.155 19.898 558.464 19.898 561.744 19.898 564.427 22.579 564.427 25.859 564.427 29.167 561.774 31.677 558.464 31.677" fill="#4e4e55" fill-opacity="1" stroke="none"/>
</svg>
